src/assets/img/lib/arrow-right.svg

<?xml version="1.0" encoding="UTF-8" standalone="no"?>
<svg
   xmlns:dc="http://purl.org/dc/elements/1.1/"
   xmlns:cc="http://creativecommons.org/ns#"
   xmlns:rdf="http://www.w3.org/1999/02/22-rdf-syntax-ns#"
   xmlns:svg="http://www.w3.org/2000/svg"
   xmlns="http://www.w3.org/2000/svg"
   xmlns:sodipodi="http://sodipodi.sourceforge.net/DTD/sodipodi-0.dtd"
   xmlns:inkscape="http://www.inkscape.org/namespaces/inkscape"
   width="17"
   height="17"
   viewBox="0 0 17 17"
   fill="none"
   version="1.1"
   id="svg15"
   sodipodi:docname="arrow-right.svg"
   inkscape:version="1.0.2 (1.0.2+r75+1)">
  <metadata
     id="metadata19">
    <rdf:RDF>
      <cc:Work
         rdf:about="">
        <dc:format>image/svg+xml</dc:format>
        <dc:type
           rdf:resource="http://purl.org/dc/dcmitype/StillImage" />
      </cc:Work>
    </rdf:RDF>
  </metadata>
  <sodipodi:namedview
     pagecolor="#ffffff"
     bordercolor="#666666"
     borderopacity="1"
     objecttolerance="10"
     gridtolerance="10"
     guidetolerance="10"
     inkscape:pageopacity="0"
     inkscape:pageshadow="2"
     inkscape:window-width="1920"
     inkscape:window-height="1033"
     id="namedview17"
     showgrid="false"
     inkscape:zoom="42.058824"
     inkscape:cx="4.3272727"
     inkscape:cy="8.5"
     inkscape:window-x="0"
     inkscape:window-y="24"
     inkscape:window-maximized="1"
     inkscape:current-layer="svg15" />
  <g
     clip-path="url(#clip0)"
     id="g8"
     style="fill:#4e00ff;fill-opacity:1">
    <path
       d="M16.9731 8.63129C17.0278 8.49884 16.9973 8.34644 16.8959 8.24524L10.5209 1.87024C10.3802 1.73434 10.156 1.73825 10.0201 1.87893C9.88753 2.0162 9.88753 2.23378 10.0201 2.37101L15.7909 8.14181L0.354178 8.14181C0.158578 8.14184 0 8.30042 0 8.49602C0 8.69162 0.158578 8.8502 0.354178 8.8502L15.7909 8.8502L10.0208 14.6203C9.88012 14.7562 9.8762 14.9804 10.0121 15.1211C10.148 15.2618 10.3722 15.2656 10.5129 15.1298C10.5159 15.1269 10.5187 15.124 10.5216 15.1211L16.8966 8.74607C16.9293 8.71317 16.9553 8.67419 16.9731 8.63129Z"
       fill="#2196F3"
       id="path2"
       style="fill:#4e00ff;fill-opacity:1" />
    <path
       d="M10.2708 15.2251C10.0752 15.2255 9.91638 15.0672 9.91602 14.8716C9.91585 14.7773 9.9533 14.6868 10.0201 14.6202L16.1451 8.49598L10.0201 2.37173C9.88417 2.23105 9.88809 2.00683 10.0288 1.87093C10.166 1.73838 10.3836 1.73838 10.5208 1.87093L16.8958 8.24592C17.0341 8.38421 17.0341 8.6084 16.8958 8.74673L10.5208 15.1217C10.4545 15.1879 10.3646 15.2251 10.2708 15.2251Z"
       fill="white"
       id="path4"
       style="fill:#4e00ff;fill-opacity:1" />
    <path
       d="M16.6458 8.85023L0.354178 8.85023C0.158578 8.85023 0 8.69169 0 8.49609C0 8.30049 0.158578 8.14191 0.354178 8.14191L16.6459 8.14191C16.8415 8.14191 17 8.30049 17 8.49609C17 8.69169 16.8414 8.85023 16.6458 8.85023Z"
       fill="white"
       id="path6"
       style="fill:#4e00ff;fill-opacity:1" />
  </g>
  <defs
     id="defs13">
    <clipPath
       id="clip0">
      <rect
         width="17"
         height="17"
         fill="white"
         id="rect10" />
    </clipPath>
  </defs>
</svg>

<svg xmlns="http://www.w3.org/2000/svg" width="17" height="17" fill="none"><g clip-path="url(#clip0)" fill="#efbb53"><path d="M16.973 8.631a.354.354 0 00-.077-.386L10.52 1.87a.354.354 0 00-.5.501l5.77 5.77H.354a.354.354 0 000 .71h15.437l-5.77 5.77a.354.354 0 00.492.509l.009-.009 6.375-6.375a.357.357 0 00.076-.115z"/><path d="M10.27 15.225a.354.354 0 01-.25-.605l6.125-6.124-6.125-6.124a.354.354 0 01.5-.501l6.376 6.375a.354.354 0 010 .5l-6.375 6.376a.354.354 0 01-.25.103z"/><path d="M16.646 8.85H.354a.354.354 0 110-.708h16.292a.354.354 0 110 .708z"/></g><defs id="defs13"><clipPath id="clip0"><path fill="#fff" id="rect10" d="M0 0h17v17H0z"/></clipPath></defs></svg>
